X: 30166
T: Old Dash Churn, The
R: jig
M: 6/8
K: Gmajor
||G2G BAG|dBG BAG|ABA ABd|edB AGE|
~G3 BAG|dBG BAG|A3 AGA|BGE E2D|
DGG BAG|dBG BAG|A/A/A ABd|edB AGE|
DGG BAG|dBG BAG|A3 AGA|BGE Eef||
~g3 edB|gfg edB|Aaa aba|Aaa aba|
~g3 edB|gfg edB|A3 AGA|BGE Eef|
g2g edB|g2g edB|A2a aga|Aaa aba|
~g3 edB|gfg edB|ABA AGA|BGE E2D||

